src/components/00-materials/images-raw/WC.svg

<svg width="96" height="96" viewBox="0 0 96 96" fill="none" xmlns="http://www.w3.org/2000/svg">
<path d="M30.34 56.91H65.66M40.27 67.44C40.2663 67.7259 40.2965 68.0112 40.36 68.29L43.45 81.07C43.5656 81.3561 43.7672 81.5992 44.027 81.7658C44.2867 81.9324 44.5918 82.0142 44.9 82H51.1C51.4082 82.0142 51.7133 81.9324 51.973 81.7658C52.2327 81.5992 52.4344 81.3561 52.55 81.07L55.64 68.29C55.7035 68.0112 55.7337 67.7259 55.73 67.44C60.54 65.37 63.8 61.44 63.8 56.91H32.2C32.2 61.43 35.46 65.37 40.27 67.44ZM41.68 18.13H54.32C54.9572 18.0861 55.5917 18.2467 56.1313 18.5885C56.6709 18.9302 57.0873 19.4352 57.32 20.03L63.63 46.13C64.41 49.37 62.94 52.29 60.27 52.29H35.77C33.1 52.29 31.63 49.37 32.41 46.13L38.72 20C38.9555 19.4176 39.3678 18.9239 39.8989 18.5884C40.43 18.2529 41.0529 18.0926 41.68 18.13V18.13ZM44.45 17.55C44.45 16.6085 44.824 15.7055 45.4898 15.0398C46.1555 14.374 47.0585 14 48 14C48.9415 14 49.8445 14.374 50.5102 15.0398C51.176 15.7055 51.55 16.6085 51.55 17.55H44.45Z" stroke="#00008F" stroke-width="2" stroke-linecap="round" stroke-linejoin="round"/>
</svg>

<svg width="96" height="96" viewBox="0 0 96 96" fill="none" xmlns="http://www.w3.org/2000/svg"><path d="M30.34 56.91h35.32M40.27 67.44c-.004.286.026.571.09.85l3.09 12.78a1.49 1.49 0 001.45.93h6.2a1.49 1.49 0 001.45-.93l3.09-12.78c.063-.279.094-.564.09-.85 4.81-2.07 8.07-6 8.07-10.53H32.2c0 4.52 3.26 8.46 8.07 10.53zm1.41-49.31h12.64a3 3 0 013 1.9l6.31 26.1c.78 3.24-.69 6.16-3.36 6.16h-24.5c-2.67 0-4.14-2.92-3.36-6.16L38.72 20a3 3 0 012.96-1.87v0zm2.77-.58a3.55 3.55 0 117.1 0h-7.1z" stroke="#00008F" stroke-width="2" stroke-linecap="round" stroke-linejoin="round"/></svg>
